!!!OTL@@DE: Weihelied
!!!ODT: 1770
!!!OMD: Feierlich
!!!LYR: Niemann, August
!!!LDT: 1781
!!!OCL: Erk, Ludwig
!!!GCO: Deutscher Liederschatz, Band 1
**kern	**kern	**kern
*staff3	*staff2	*staff1
*Ipiano	*Ipiano	*Ivox
*>[A,A,B,B]	*>[A,A,B,B]	*>[A,A,B,B]
*>norep[A,B]	*>norep[A,B]	*>norep[A,B]
*>A	*>A	*>A
*clefF4	*clefG2	*clefG2
*k[b-]	*k[b-]	*k[b-]
*F:	*F:	*F:
*M3/2	*M3/2	*M3/2
*MM208	*MM208	*MM208
(8c\L	(8cc/L	(8cc/L
8A\)	8a/)	8a/J)
(8B-\	(8b-/	(8b-/L
8G\J)	8g/J)	8g/J)
=1	=1	=1
2F\	2f/	2f/
2C/	2c/	2c/
4AA/ 4F/	4c/ 4f/	4f/
4C\ 4E\	4c/ 4g/	4g/
=2	=2	=2
2F\	2c/ 2a/	2a/
2F\ 2A\	2c/ 2f/	2f/
4F\ 4c\	4f/ 4a/	4a/
4D\ 4d\	4f/ 4b-/	4b-\
=3	=3	=3
2AA\ 2c\	2f/ 2cc/	2cc\
2BB-\ 2B-\	2f/ 2dd/	2dd\
4C\ 4G\	4e/ 4cc/	4cc\
4C\ 4c\	4e/ 4b-/	4b-\
=4	=4	=4
(2C\ [2c\	2e/ (2b-/	(2b-\
2F\) 2c\]	&(2f/&) 2a/)	2a/)
=5:|!|:	=5:|!|:	=5:|!|:
*>B	*>B	*>B
*M2/2	*M2/2	*M2/2
4.F\ 4.A\	4.f/ 4.cc/	4.cc\
8F\ 8c\	8f/ 8a/	8a/
4A\ 4c\	4f/	4f/
4F\ 4A\	4f\ 4ff\	4ff\
=6	=6	=6
4.B-\	4.f/ 4.dd/	4.dd\
8A\ 8c\	8f/ 8cc/	8cc\
4G\ 4c\	4e/ 4b-/	4b-\
4F\ 4c\	4f/ 4a/	4a/
=7	=7	=7
4.C\ 4.c\	4.e/ 4.g/	4.g/
8C\ 8c\	8f/ 8a/	8a/
4C\ 4c\	4g/ 4b-/	4b-\
4B-\ 4c\	4e/ 4g/	4g/
=8	=8	=8
4.A\ 4.c\	4.f/ 4.cc/	4.cc\
8E\ 8c\	8g/ 8b-/	8b-\
4F\ 4c\	4f/ 4a/	4a/
4C\ 4B-\	4e/ 4g/	4g/
=9	=9	=9
2D\ 2A\	2f/	2f/
2C\ 2c\	2e/ 2g/	2g/
=10	=10	=10
*	*^	*
(4F\ 4c\	(4a/	2.f\	(4a/
4D\ 4d\	4b-/	.	4b-\
4AA\) 4c\	4cc/)	.	4cc\)
*^	*	*	*
(8B-/L	4BB-\	(8dd/L	4f\	(8dd\L
8d/J)	.	8b-/J)	.	8b-\J)
*v	*v	*	*	*
*	*v	*v	*
=11	=11	=11
2C/	2c/ 2f/ 2a/	2a/
2C\ 2B-\	2c/ 2e/ 2g/	2g/
=12	=12	=12
2F\ 2A\	2c/ 2f/	2f/
2r	2r	2r
==:|!	==:|!	==:|!
*-	*-	*-
!!!ENC: Craig Stuart Sapp
!!!END: 2004/06/28/
!!!EFL: 169/651
